X: 35959
T: Sarah's Ashes
R: reel
M: 4/4
K: Dmajor
|:A2 BA AF ED|EF ED ~A,2A,D|B,D DB, B2 (3ABd|B2 (3ABd fe dB|
dB BA Bd (3DEF|GF ED ~B,2B,D|A,D BA FE ED|D4D4:|
|:ef fa fe d2|BA AF A2A2|DE FB AB df|ef ac B2Bd|
AF FE F2FB|AF FD B,2B,B|AF FE (3DEF ED|D4D4:|
|:D2 (3DEF AB d2|f2 (3fed BA F2|E2 (3EFA B2 (3ABd|f2 (3efa fe dA|
F2 {F}ED (3DEF A,B,|D2 BA Bd A,B,|D2 BA FE ED|D4D4:|

